X:1
T:Where the Savior Leads
T:Where the Savior Leads
T:Ira David Sankey
T:Frances Jane (Fanny) Crosby, 1895
T:Public Domain Courtesy of the Cyber Hymnal™
T:Public Domain Courtesy of the Cyber Hymnal™
C:Ira David Sankey
Z:Public Domain
Z:Courtesy of the Cyber Hymnal™
%%score ( 1 2 ) ( 3 4 )
L:1/8
Q:1/4=102
M:4/4
K:Eb
V:1 treble 
V:2 treble 
V:3 bass 
V:4 bass 
V:1
 [EG]2 [EG]>[DF] [DF]EE[EG] | [GB]2 [GB]>[Ac] [GB]4 | [EG]2 [EG]>[EG] [Ec][EB][DA][EG] | %3
w: 1.~If in the val- ley where the|bright wa- ters flow,|Je- sus, my Sav- ior leads me,|
w: 2.~Out on the bar- ren mount- ains,|drear- y and cold,|Seek- ing the sheep that wan- der|
w: 3.~Wher- e’er the Sav- ior leads me,|I’ll fol- low still,|Pa- tient in joy or sor- row,|
 F2 [EF]>[EF] ([DF]2 [FA]2) | [EG]2 [EG]>[DF] [DF]EE[EG] | [GB]2 [GB]>[Ac] [GB]4 | %6
w: glad- ly I’ll go; *|If, by His hand di- rect- ed|o’er o- cean’s wave,|
w: far from the fold; *|Storm clouds may frown a- bove me,|fierce winds may blow,|
w: bid- ing His will; *|He knows the path of safe- ty,|He knows the way,|
 [Ge]2 [GB]>[Ac] [GB][EG]E[EA] | [EG]2 [DG]>[DF] E4 ||"^Refrain" [GB]4- [GB][FA][EG][GB] | %9
w: Glad- ly I’ll bear His mess- age,|lost ones to save.|Where * the Sav- ior|
w: Yet, if my Sav- ior leads me,|on- ward I’ll go.||
w: Home to the ma- ny man- sions,|bright, bright as day.||
 [Ge]4 [GB]4 | [Ac]4- [Ac][ce][Bd][Ac] | [Ac]4 [GB]4 | [Ge]2 [EB]2 [EA][EG][DF]E | [Ec]4 [Fe]4 | %14
w: leads me,|I * will glad- ly|fol- low,|Where the lov- ing Sav- ior|leads me,|
w: |||||
w: |||||
 [Fd]2 [DB]2 [DA]2 [B,D]2 | [B,E]8 |] %16
w: I will glad- ly|go.|
w: ||
w: ||
V:2
 x5 EE x | x8 | x8 | F2 x6 | x5 EE x | x8 | x6 E x | x4 E4 || x8 | x8 | x8 | x8 | x7 E | x8 | x8 | %15
 x8 |] %16
V:3
 [E,B,]2 [E,B,]>[E,A,] [E,A,][E,G,][E,G,][E,B,] | [E,E]2 [E,E]>[E,E] [E,E]4 | %2
w: ~ ~ ~ ~ ~ ~ ~|~ ~ ~ ~|
 [E,B,]2 [E,B,]>[E,B,] A,[G,B,][F,B,][E,B,] | [D,B,]2 [C,=A,]>[C,A,] [B,,B,]4 | %4
w: ~ ~ ~ ~ ~ ~ ~|~ ~ ~ ~|
 [E,B,]2 [E,B,]>[E,A,] [E,A,][E,G,][E,G,][E,B,] | [E,E]2 [E,E]>[E,E] [E,E]4 | %6
w: ~ ~ ~ ~ ~ ~ ~|~ ~ ~ ~|
 [E,B,]2 [E,E]>[E,E] [E,E][E,B,][E,G,][A,,C] | [B,,B,]2 [B,,B,]>[B,,A,] [E,G,]4 || %8
w: ~ ~ ~ ~ ~ ~ ~|~ ~ ~ ~|
 [E,B,]2 [E,B,]2 [E,B,]2 [E,B,]2 | [E,B,]2 [E,B,]2 [E,E]2 [E,E]2 | [A,E]2 [A,E]2 [A,E]2 [A,E]2 | %11
w: Where the lov- ing|Sav- ior leads me,|I will glad- ly,|
 [E,E]2 [E,E]2 [E,E]2 [E,E]2 | [E,B,]2 [E,G,]2 [E,C][E,B,][E,A,][E,G,] | A,4 [=A,C]4 | %14
w: glad- ly fol- low,|||
 B,2 B,2 [B,,B,]2 [B,,A,]2 | [E,G,]8 |] %16
w: ||
V:4
 x8 | x8 | x4 A, x3 | x8 | x8 | x8 | x8 | x8 || x8 | x8 | x8 | x8 | x8 | =A,4 x4 | B,2 B,2 x4 | %15
 x8 |] %16

